X: 12158
T: Executioner's, The
R: jig
M: 6/8
K: Edorian
|:~E3 EFG|B2G F2D|~E3 EFG|B2G F2D|
~E3 EFG|B2G F2E|F2G A2G|1 F2E F2G:|2 F2E F2B||
|:B2g f2e|d2c B2c|d2c e2d|c2B c2B|
B2g f2e|d2c B2e|f2d e2c|1 d2B c2A:|2 d2B c3||

